X: 5
T:Y Galon Drom
T:The Heavy Heart
M:C
L:1/8
Q:150
C:Trad
S:51 Welsh Airs
R:?
A:Wales
H:From a facsimile c.1840: A Choice Collection of Fifty-One Welsh Airs
H:adapted for The Harp, Piano-Forte, Harpsichord,
H:Violin, or Flute by Edward Jones
H:"Harper to His Late Majesty King George IV, when
H:Prince of Wales".
Z:brian_martin12345@yahoo.com
K:Am
"Pathetic"
cB|A2AB cBcA|eE^GB eBGE|c2e2d2f2|e3fg2f2|{fef}e4d2c2|d2B2c2e2|
f2d2 dfed|cedc BdcB|A2AB cBcA|eE^GB eBGE|cedc dfed|
e3fg2f2|{fef}e4 d2c2|d2B2c2d2|(e2c2)(B2d2)|c6:|
|:cd|edcB ABcd|eB^GE edcB|A2(3ABc B2A2|
^G2A2B2G2|A2B2c2d2|e2c2f2e2|d2c2B2A2|B2c2(d2e2)|c4 B3{AB}A|A6:||

